public/images/visa.svg

<svg width="108" height="68" viewBox="0 0 108 68" fill="none" xmlns="http://www.w3.org/2000/svg">
<g filter="url(#filter0_b_83_3201)">
<rect x="4" y="64" width="60" height="100" rx="30" transform="rotate(-90 4 64)" fill="url(#paint0_radial_83_3201)"/>
<rect x="2.25" y="65.75" width="63.5" height="103.5" rx="31.75" transform="rotate(-90 2.25 65.75)" stroke="url(#paint1_radial_83_3201)" stroke-width="3.5"/>
<rect x="2.25" y="65.75" width="63.5" height="103.5" rx="31.75" transform="rotate(-90 2.25 65.75)" stroke="url(#paint2_radial_83_3201)" stroke-width="3.5"/>
</g>
<g clip-path="url(#clip0_83_3201)">
<path d="M50.7761 43.0213H46.3318L49.1116 25.3184H53.5556L50.7761 43.0213Z" fill="#EAE0FF"/>
<path d="M66.8851 25.7522C66.0085 25.394 64.6181 24.9985 62.8989 24.9985C58.5101 24.9985 55.4194 27.409 55.4005 30.8553C55.364 33.3979 57.6133 34.8102 59.2955 35.658C61.015 36.5243 61.5994 37.0898 61.5994 37.862C61.5819 39.0479 60.21 39.5946 58.9305 39.5946C57.1561 39.5946 56.2054 39.3128 54.7606 38.6529L54.1754 38.3701L53.5535 42.344C54.5958 42.8331 56.5162 43.2672 58.5101 43.2862C63.1733 43.2862 66.2092 40.913 66.2452 37.2404C66.2629 35.2252 65.0752 33.681 62.5147 32.4192C60.9603 31.6092 60.0083 31.063 60.0083 30.2343C60.0266 29.4808 60.8135 28.7091 62.5682 28.7091C64.013 28.6713 65.0745 29.029 65.8787 29.387L66.2807 29.575L66.8851 25.7522Z" fill="#EAE0FF"/>
<path d="M72.7881 36.7498C73.1541 35.7328 74.5625 31.7966 74.5625 31.7966C74.544 31.8344 74.9278 30.7608 75.1472 30.1018L75.4578 31.6272C75.4578 31.6272 76.2994 35.8647 76.4822 36.7498C75.7876 36.7498 73.666 36.7498 72.7881 36.7498ZM78.274 25.3184H74.8364C73.7763 25.3184 72.9709 25.6383 72.5135 26.7872L65.9121 43.021H70.5754C70.5754 43.021 71.3431 40.8361 71.5081 40.3655C72.0197 40.3655 76.5561 40.3655 77.2142 40.3655C77.3418 40.987 77.7445 43.021 77.7445 43.021H81.8595L78.274 25.3184Z" fill="#EAE0FF"/>
<path d="M42.6156 25.3184L38.2632 37.3901L37.7876 34.9418C36.9829 32.1168 34.4593 29.0475 31.6431 27.5213L35.6297 43.0025H40.3294L47.3151 25.3184H42.6156Z" fill="#EAE0FF"/>
<path d="M34.2233 25.3184H27.0729L26.9998 25.6761C32.5775 27.1451 36.2716 30.6863 37.7893 34.9425L36.2349 26.8065C35.979 25.6758 35.1925 25.3557 34.2233 25.3184Z" fill="#412548"/>
</g>
<defs>
<filter id="filter0_b_83_3201" x="-41.5" y="-41.5" width="191" height="151" filterUnits="userSpaceOnUse" color-interpolation-filters="sRGB">
<feFlood flood-opacity="0" result="BackgroundImageFix"/>
<feGaussianBlur in="BackgroundImageFix" stdDeviation="21"/>
<feComposite in2="SourceAlpha" operator="in" result="effect1_backgroundBlur_83_3201"/>
<feBlend mode="normal" in="SourceGraphic" in2="effect1_backgroundBlur_83_3201" result="shape"/>
</filter>
<radialGradient id="paint0_radial_83_3201" cx="0" cy="0" r="1" gradientUnits="userSpaceOnUse" gradientTransform="translate(5.17073 67.5857) rotate(58.6097) scale(112.945 185.648)">
<stop stop-color="white" stop-opacity="0.26"/>
<stop offset="1" stop-color="white" stop-opacity="0"/>
</radialGradient>
<radialGradient id="paint1_radial_83_3201" cx="0" cy="0" r="1" gradientUnits="userSpaceOnUse" gradientTransform="translate(4.87805 64) rotate(58.9001) scale(114.459 186.157)">
<stop stop-color="white"/>
<stop offset="1" stop-color="white" stop-opacity="0"/>
</radialGradient>
<radialGradient id="paint2_radial_83_3201" cx="0" cy="0" r="1" gradientUnits="userSpaceOnUse" gradientTransform="translate(4 64) rotate(58.9001) scale(114.459 186.157)">
<stop stop-color="#18195E"/>
<stop offset="1" stop-color="#151515" stop-opacity="0"/>
</radialGradient>
<clipPath id="clip0_83_3201">
<rect width="54.8629" height="18.2876" fill="white" transform="translate(27 25)"/>
</clipPath>
</defs>
</svg>

<svg width="108" height="68" fill="none" xmlns="http://www.w3.org/2000/svg"><g filter="url(#a)"><rect x="4" y="64" width="60" height="100" rx="30" transform="rotate(-90 4 64)" fill="url(#b)"/><rect x="2.25" y="65.75" width="63.5" height="103.5" rx="31.75" transform="rotate(-90 2.25 65.75)" stroke="url(#c)" stroke-width="3.5"/><rect x="2.25" y="65.75" width="63.5" height="103.5" rx="31.75" transform="rotate(-90 2.25 65.75)" stroke="url(#d)" stroke-width="3.5"/></g><g clip-path="url(#e)"><path d="M50.776 43.021h-4.444l2.78-17.703h4.444l-2.78 17.703ZM66.885 25.752C66.008 25.394 64.618 25 62.9 25c-4.389 0-7.48 2.41-7.498 5.856-.037 2.543 2.212 3.955 3.894 4.803 1.72.866 2.304 1.432 2.304 2.204-.017 1.186-1.389 1.733-2.668 1.733-1.775 0-2.726-.282-4.17-.942l-.586-.283-.621 3.974c1.042.49 2.962.923 4.956.942 4.663 0 7.7-2.373 7.735-6.046.018-2.015-1.17-3.559-3.73-4.82-1.555-.81-2.507-1.357-2.507-2.186.019-.753.805-1.525 2.56-1.525 1.445-.038 2.507.32 3.31.678l.403.188.604-3.823ZM72.788 36.75c.366-1.017 1.775-4.953 1.775-4.953-.019.037.365-1.036.584-1.695l.31 1.525s.842 4.238 1.025 5.123h-3.694Zm5.486-11.432h-3.438c-1.06 0-1.865.32-2.323 1.47l-6.6 16.233h4.662l.933-2.656h5.706c.128.622.53 2.656.53 2.656h4.115l-3.585-17.703ZM42.616 25.318 38.263 37.39l-.475-2.448c-.805-2.825-3.329-5.895-6.145-7.42l3.987 15.48h4.7l6.985-17.684h-4.7Z" fill="#EAE0FF"/><path d="M34.223 25.318h-7.15l-.073.358c5.578 1.47 9.272 5.01 10.79 9.267l-1.555-8.136c-.256-1.131-1.042-1.451-2.012-1.489Z" fill="#412548"/></g><defs><radialGradient id="b" cx="0" cy="0" r="1" gradientUnits="userSpaceOnUse" gradientTransform="matrix(58.82911 96.41426 -158.47637 96.69757 5.17 67.586)"><stop stop-color="#fff" stop-opacity=".26"/><stop offset="1" stop-color="#fff" stop-opacity="0"/></radialGradient><radialGradient id="c" cx="0" cy="0" r="1" gradientUnits="userSpaceOnUse" gradientTransform="rotate(58.9 -54.236 36.32) scale(114.459 186.157)"><stop stop-color="#fff"/><stop offset="1" stop-color="#fff" stop-opacity="0"/></radialGradient><radialGradient id="d" cx="0" cy="0" r="1" gradientUnits="userSpaceOnUse" gradientTransform="rotate(58.9 -54.675 35.542) scale(114.459 186.157)"><stop stop-color="#18195E"/><stop offset="1" stop-color="#151515" stop-opacity="0"/></radialGradient><clipPath id="e"><path fill="#fff" transform="translate(27 25)" d="M0 0h54.863v18.288H0z"/></clipPath><filter id="a" x="-41.5" y="-41.5" width="191" height="151" filterUnits="userSpaceOnUse" color-interpolation-filters="sRGB"><feFlood flood-opacity="0" result="BackgroundImageFix"/><feGaussianBlur in="BackgroundImageFix" stdDeviation="21"/><feComposite in2="SourceAlpha" operator="in" result="effect1_backgroundBlur_83_3201"/><feBlend in="SourceGraphic" in2="effect1_backgroundBlur_83_3201" result="shape"/></filter></defs></svg>
